X:67
T:See Amid the Winter's Snow
%%stretchlast false
M:4/4
L:1/4
K:F clef=C1
"^I"[F,,F,A,F]3/2 [F,,F,A,G]/ [G,,F,B,F] "^iii"[A,,C,CE] | "^IV"[B,,D,F,D] "^viiø7²"[B,,E,G,D]/ "^V7³"[B,,E,G,C]/ "^I"[F,,F,A,C] "^ii"[F,,G,B,C] | "^I"[F,A,CF] "^iii7²"[E,A,CG] "^IV¹"[D,DFB] "^I"[F,CFA] | "^I²"[C,CFA] [C,=B,FA]/ "^V/V"[C,=B,FG]/ "^V"[C,CEG] "^V7³"[B,,CEG] | "^I¹"[A,,F,CF] "^I"[F,,F,A,F]/ [F,,F,A,G]/ [G,,F,B,F] "^iii"[A,,C,CE] | "^IV"[B,,D,F,D] "^viiø7²"[B,,E,G,D]/ "^V7³"[B,,E,G,C]/ "^I"[F,A,C] "^V¹"[E,G,C] | "^vi"[D,F,A,F] "^ii7²"[D,F,B,G] "^I²"[C,F,CA] "^IV"[B,,F,DB] | "^ii"[C,F,B,G] "^V7"[C,E,B,G]/ "^V"[C,E,B,F]/ "^I"[F,,F,A,F]2 | [F,A,Fc]3/2 [F,A,Fc]/ "^IV²"[F,DFB] "^I"[F,CFA] | "^V7¹"[E,B,CG] "^I"[F,A,CF] "^V"[C,G,CE]2 | "^I¹"[A,,F,Cc]3/2 [A,,F,Fc]/ "^IV"[B,,DFB] "^I"[F,,CFA] | "^ii"[G,,B,DG] "^I¹"[A,,A,CF]/ "^I"[B,,A,CF]/ "^V"[C,G,CE]2 | "^vi"[D,F,A,F]3/2 [D,F,A,G]/ "^II7"[G,,D,=B,F] "^iii"[A,,C,CE] | "^vi7¹"[F,,A,CD] "^II"[G,,G,=B,D]/ "^V/V"[G,,F,=B,C]/ "^V"[C,E,C] "^V7³"[B,,E,C] | "^I¹"[A,,F,Cc]3/2 [A,,F,CA]/ "^IV"[B,,F,DF] "^ii7"[G,,DFB] | "^iii¹"[C,CEA] "^V7"[C,B,EG] "^I"[F,,A,F]2 |]
